icons/a-large-small.svg

<svg width="24" height="24" viewBox="0 0 24 24" fill="none" xmlns="http://www.w3.org/2000/svg">
<path d="M9.71281 13.9381L7.43834 6.76069C7.11694 5.74644 5.88307 5.74644 5.56166 6.76068L3.28719 13.9381L2 18M3.28719 13.9381C5.52645 14.5381 7.43633 14.5481 9.71281 13.9381M9.71281 13.9381L11 18" stroke="black" stroke-width="2" stroke-linecap="round" stroke-linejoin="round"/>
<path d="M20.9989 15.2921L19.2298 10.5071C18.9798 9.83096 18.0202 9.83096 17.7702 10.5071L16.0011 15.2921L15 18M16.0011 15.2921C17.7428 15.6921 19.2283 15.6987 20.9989 15.2921M20.9989 15.2921L22 18" stroke="black" stroke-width="2" stroke-linecap="round" stroke-linejoin="round"/>
</svg>

<svg xmlns="http://www.w3.org/2000/svg" width="24" height="24" viewBox="0 0 24 24" fill="none" stroke="currentColor" stroke-width="2" stroke-linecap="round" stroke-linejoin="round">
<path d="M9.713 13.938 7.438 6.761c-.321-1.015-1.555-1.015-1.876 0l-2.275 7.177L2 18m1.287-4.062c2.24.6 4.15.61 6.426 0m0 0L11 18m9.999-2.708-1.77-4.785c-.25-.676-1.209-.676-1.459 0l-1.769 4.785L15 18m1.001-2.708c1.742.4 3.227.407 4.998 0m0 0L22 18"/>
</svg>
